X:1
T:Paradise Hornpipe,aka. JBu.28
C:unnamed in MS, named by Paul Davenport
L:1/8
Q:1/2=90
M:2/2
I:linebreak $
K:D
V:1 treble 
V:1
 A2 | dcde dAFA | Bcde dcBA | BGFG AFdF | EFGA GFED | dcde fdAF |$ EFGA Bcde | cAfd cAB^G | %8
 A2 A2 A2 :: z2 | A2 A2 Acef | gefe dcBA | BGFG AFdF |$ EFGA GFED | dAFA GBEG | FAdf ecAF | %16
 GABG FDEC | D2 D2 D2 :| %18
